packages/vibrant-icons/assets/icons/Keyboard/Regular.svg

<svg width="24" height="24" viewBox="0 0 24 24" fill="none" xmlns="http://www.w3.org/2000/svg">
<path d="M6.375 7.5H4.625V9.25H6.375V7.5Z" fill="#0C0C0C"/>
<path d="M4.625 11.25H6.375V13H4.625V11.25Z" fill="#0C0C0C"/>
<path d="M6.375 15H4.625V16.75H6.375V15Z" fill="#0C0C0C"/>
<path d="M7.875 7.5H9.625V9.25H7.875V7.5Z" fill="#0C0C0C"/>
<path d="M9.625 11.25H7.875V13H9.625V11.25Z" fill="#0C0C0C"/>
<path d="M7.875 15H16.125V16.75H7.875V15Z" fill="#0C0C0C"/>
<path d="M12.875 7.5H11.125V9.25H12.875V7.5Z" fill="#0C0C0C"/>
<path d="M11.125 11.25H12.875V13H11.125V11.25Z" fill="#0C0C0C"/>
<path d="M16.125 7.5H14.375V9.25H16.125V7.5Z" fill="#0C0C0C"/>
<path d="M14.375 11.25H16.125V13H14.375V11.25Z" fill="#0C0C0C"/>
<path d="M19.375 7.5H17.625V9.25H19.375V7.5Z" fill="#0C0C0C"/>
<path d="M17.625 11.25H19.375V13H17.625V11.25Z" fill="#0C0C0C"/>
<path d="M19.375 15H17.625V16.75H19.375V15Z" fill="#0C0C0C"/>
<path fill-rule="evenodd" clip-rule="evenodd" d="M23.0999 3.65088C23.0999 3.51281 22.988 3.40088 22.8499 3.40088H1.1499C1.01183 3.40088 0.899902 3.51281 0.899902 3.65088V20.349C0.899902 20.4871 1.01183 20.599 1.1499 20.599H22.8499C22.988 20.599 23.0999 20.4871 23.0999 20.349V3.65088ZM3.0999 18.399V5.60088H20.8999V18.399H3.0999Z" fill="#0C0C0C"/>
</svg>

<svg xmlns="http://www.w3.org/2000/svg" width="24" height="24" fill="none"><path fill="#0C0C0C" d="M6.375 7.5h-1.75v1.75h1.75zm-1.75 3.75h1.75V13h-1.75zM6.375 15h-1.75v1.75h1.75zm1.5-7.5h1.75v1.75h-1.75zm1.75 3.75h-1.75V13h1.75zM7.875 15h8.25v1.75h-8.25zm5-7.5h-1.75v1.75h1.75zm-1.75 3.75h1.75V13h-1.75zm5-3.75h-1.75v1.75h1.75zm-1.75 3.75h1.75V13h-1.75zm5-3.75h-1.75v1.75h1.75zm-1.75 3.75h1.75V13h-1.75zm1.75 3.75h-1.75v1.75h1.75z"/><path fill="#0C0C0C" fill-rule="evenodd" d="M23.1 3.65a.25.25 0 0 0-.25-.25H1.15a.25.25 0 0 0-.25.25v16.7c0 .138.112.25.25.25h21.7a.25.25 0 0 0 .25-.25zM3.1 18.4V5.601h17.8v12.798z" clip-rule="evenodd"/></svg>
